X: 3260
T: Hopsa-Vals
B:[[Notböcker/Melodier til gamle danske Almuedanse for Violin solo]]
O:Danmark
Z:Søren Bak Vestergaard
M: 2/4
L: 1/8
K: C
CEGc|e2 c2|{/^f}g2{/f}g2|e2 c2|G2 G2|fd ec|Bc dB|1 c2 z2:|2 c2 ||\
|:(EF)|G2 GA|G2 EG|AB cA|G2 G2|AG AB|cd ec|de fd|1 c2:|2 c2 z2|]
(:musicend:)
(:music:)
